dashboard/static/img/request.svg

<?xml version="1.0" encoding="UTF-8"?>
<svg width="20px" height="20px" viewBox="0 0 20 20" version="1.1" xmlns="http://www.w3.org/2000/svg" xmlns:xlink="http://www.w3.org/1999/xlink">
    <!-- Generator: Sketch 43.2 (39069) - http://www.bohemiancoding.com/sketch -->
    <title>icons / request-white</title>
    <desc>Created with Sketch.</desc>
    <defs></defs>
    <g id="Symbols" stroke="none" stroke-width="1" fill="none" fill-rule="evenodd">
        <g id="icons-/-request-white" fill="#FFFFFF">
            <path d="M19.609375,0.25 C19.7916676,0.25 19.9088539,0.321613867 19.9609375,0.46484375 C20.0130211,0.608073633 19.9869797,0.80338418 19.8828125,1.05078125 L11.8945312,19.6835938 C11.8294268,19.8658863 11.741537,19.9993485 11.6308594,20.0839844 C11.5201817,20.1686202 11.4062506,20.2109375 11.2890625,20.2109375 C11.1848953,20.2109375 11.0807297,20.1751306 10.9765625,20.1035156 C10.8723953,20.0319007 10.77474,19.9244799 10.6835938,19.78125 L7.51953125,14.6054688 C7.33723867,14.2929672 7.06705908,13.9576841 6.70898438,13.5996094 C6.35090967,13.2415347 6.01562656,12.9648447 5.703125,12.7695313 L0.4296875,9.48828125 C0.130206836,9.29296777 -0.00976572266,9.074871 0.009765625,8.83398438 C0.0292969727,8.59309775 0.201821289,8.40104238 0.52734375,8.2578125 L19.1796875,0.34765625 C19.2578129,0.321614453 19.3326819,0.298828223 19.4042969,0.279296875 C19.4759118,0.259765527 19.5442705,0.25 19.609375,0.25 Z M6.3671875,11.65625 C6.49739648,11.7343754 6.63085869,11.8287755 6.76757813,11.9394531 C6.90429756,12.0501308 7.04427012,12.1705723 7.1875,12.3007812 L16.4257812,2.90625 L2.08984375,9 L6.3671875,11.65625 Z M11.1914062,18.1210938 L17.3242188,3.765625 L8.06640625,13.1796875 C8.18359434,13.3098965 8.29101514,13.4401035 8.38867188,13.5703125 C8.48632861,13.7005215 8.56770801,13.8307285 8.6328125,13.9609375 L11.1914062,18.1210938 Z" id="paper-plane---simple-line-icons"></path>
        </g>
    </g>
</svg>

<svg width="20" height="20" xmlns="http://www.w3.org/2000/svg"><path d="M19.61.25c.182 0 .299.072.35.215.053.143.027.338-.077.586l-7.988 18.633a.846.846 0 0 1-.264.4.557.557 0 0 1-.342.127.549.549 0 0 1-.312-.107 1.098 1.098 0 0 1-.293-.323L7.52 14.605c-.183-.312-.453-.647-.811-1.005a5.854 5.854 0 0 0-1.006-.83L.43 9.488c-.3-.195-.44-.413-.42-.654.02-.24.192-.433.517-.576L19.18.348c.078-.026.153-.05.224-.069A.78.78 0 0 1 19.61.25zM6.366 11.656c.13.078.264.173.4.283.137.111.277.232.42.362l9.239-9.395L2.09 9l4.277 2.656zm4.824 6.465l6.133-14.355-9.258 9.414c.118.13.225.26.323.39.097.13.179.26.244.39l2.558 4.161z" fill="#FFF" fill-rule="evenodd"/></svg>
